X:1
T:Király vagy
T: 
C:Unknown
Z:Public Domain
L:1/8
Q:1/4=90
M:4/4
K:C
V:1 treble nm="MusicXML Part"
%%MIDI program 0
V:1
 G<c c6 | G<d d6- | e2 z2 e2 dc/c/- |1 c8 :|2 c4 z2 z G |: g/g/g/g/ z g/g/ a g2 g | %6
w: Ki- rály vagy,|ki- rály vagy,-|_ Jé- zus ki- rály,|_|* Most|föl- e- mel- jük a szi- vün- ket, most|
 g/d/d/d/ z d/d/ e d2 d | d/c/c/A/ ce/ed3/2 e/dc/ |1 c6 z G :|2 c8 |] %10
w: föl- e- mel- jük- ke- ze- in- ket, a|tró- nod- e- lé já- ru- lunk, _ i- mád- va|légy! Most|légy!|

